X:1
T:Contes divins
T:La belle Madeleine
T:Contes divins
T:4. La Belle Madeleine
T:Holmès, Augusta
T:(Holmès)
T:OpenScore (CC0)
T:OpenScore (CC0)
T:OpenScore (CC0)
T:OpenScore (CC0)
C:Holmès, Augusta
Z:(Holmès)
Z:OpenScore (CC0)
%%score 1 { ( 2 4 ) | ( 3 5 ) }
L:1/8
Q:1/4=92
M:6/8
K:G
V:1 treble nm="Chant\nVoice"
V:2 treble nm="Piano"
V:4 treble 
V:3 bass 
V:5 bass 
V:1
"^Andantino" z6 | z2 z z2!p! E | B3 A G A | B A G A2 B ||[M:9/8] G3- G E F G F D ||[M:6/8] B,6- | %6
w: |La|Bel- le Ma- de-|lei- ne Sui- vait Jé-|\- sus _ qu'on me- nait à la|Croix;|
 B,3- B, z B, | F3- F!<(! G A | G2 E A B c | B A G!<)! A2 d ||[M:9/8] B2 G A3-!>(! A G A || %11
w: _ _ Pleu-|rante _ et pieds|nus, en ro- be de|laine, El- le tra- ver-|sait la plaine _ Et les|
[M:6/8] B6-!>)! | B3- B z E |!f! B3 A G A | B A G A2 (B | E3-) E F G | %16
w: bois...|_ _ La|Bel- le Ma- de-|lei- ne Sui- vait Jé-|sus _ qu'on  me-|
"^Rall."[Q:1/4=86] C3 D2[Q:1/4=74] F | E6- | E3- E z[Q:1/4=92]!f! E || %19
w: nait à la|Croix.|_ _ Au-|
"^A tempo""^bien rythmé" B3 A ^G A | B ^G E F2 G | E3 F ^G E | B3- B z B | d3 c B A | B A G A2 B | %25
w: près d'u- ne fon-|taine On voy- ait fleu-|rir un ro- sier|blanc; _ La|Bel- le Ma- de-|lei- ne Cueil- lit ces|
 ^G3!p! F G E | F3- F z!f! B | e3 d3 | c B!>(! A B G A!>)! | F G E (F2 D) | B,3- B, z!p! B, | %31
w: fleurs tout en trem-|blant... _ «C'est|pour Jé-|\- sus ce bou- quet que je|cueille   En ce jour cru-|el, _ Pour|
 F3 A3 | G F E A B c ||[M:9/8] B ^G!pp! E[Q:1/4=86] G3[Q:1/4=76] F3 ||[M:6/8] E6- | %35
w: qu'il en|garde u- ne pe- ti- te|feuil- le, Là- bas, au|Ciel!»|
 E3- E z !fermata!z ||"^A tempo"[Q:1/4=92] z6 | z2 z z2 E | B3 A G A | B A G A2 B || %40
w: _ _||La|Bel- le Ma- de-|\- lei- ne Trou- va Jé-|
[M:9/8] G3- G E F G F D ||[M:6/8] B,6- | B,3- B, z!<(! B, | F3- F G A | G z E A!<)! B/ z/ c | %45
w: sus _ qui mourait * sur la|Croix;|_ _ De|crainte _ et d'a-|mour, de lar- mes, de|
 B A G A2 d ||[M:9/8] B2 G A3- A G A ||[M:6/8]!>(! B6- | B3- B!>)! z!p! E | B3 A G A | %50
w: haine El- le se vit|l'â- me pleine _ A la|fois!|_ _ La|Bel- le Ma- de-|
 B A G A2 (B | E3-) E F G |"^Rall."[Q:1/4=86] C3 D2[Q:1/4=76] F | E6- | E3- E z[Q:1/4=92] E || %55
w: lei- ne trou- va Jé-|sus _ qui mou-|\- rait sur la|Croix.|_ _ Des|
"^A tempo""^bien rythmé" B3 A ^G A | B ^G E F2 G | E3 F ^G E | B3- B z B | d3 c B A | B A G A2 B | %61
w: fleurs de la fon-|taine Elle a- vait rem-|\- pli son cor- set|blanc; _ La|Bel- le Ma- de-|lei- ne Les ré- pan-|
 ^G3 F G E | F3- F z!f! B | e3!>(! d3 | c B A B G A!>)! | F G E F F D | B,3- B, z!p! B, | %67
w: dit tout en trem-|\- blant... _ Mais|de son|cœur, qui, na- vré de ces|cho- ses, Sai- gnait, gé- mis-|sant, _ Les|
!<(! F3 A3 | G F E A B c!<)! ||[M:9/8] B[Q:1/4=86] ^G/ z/!p!"^Rall." E[Q:1/4=74] G3[Q:1/4=70] F3 || %70
w: ro- ses|blan- ches tom- bè- rent é-|closes, * Cou- leur de|
[M:6/8]!>(! E6- | E3-!>)!!pp! E z !fermata!z |] %72
w: sang!|_ _|
V:2
!mf!"^Andantino"!>(! [B,B]6- | [B,B]3- [B,B]2!>)! z |!p! [B,EG]6- | [B,EG]6- || %4
[M:9/8] [B,EG]6- [B,EG]3 ||[M:6/8] [DF]6- | [DF]3- [DF]2 z |!<(! (^D6 | E3 F3 | G3!<)! F3 || %10
[M:9/8] G2 E!>(! C6!>)! ||[M:6/8] B,6-) | B,3- B,2 z |!f! ([B,EG]3 [DFA]3 | [DGB]3 [EFA]2 [^DFB] | %15
 E3-) E2 z | z6 | z6 | z6 ||!p!"^A tempo" ([e^g]3 [ef]3) | ([e^g]3 [ef]3) | ([e^g]6 | %22
 [^db]3-) [db]2 z | z6 | z6 | z6 | z6 |!f! [E^Ge]3 [EBd]3 |!>(! [EAc]3 [EB]3-!>)! | %29
 [EB]3!>(! [DFB]3- | [DFB]3- [DFB]2!>)! z |!p! ([B,FA]6 | [B,EG]3)!>(! (ABc!>)! || %33
[M:9/8]!pp! [E^GB]3) [EG]3 [^DA]3 ||[M:6/8] [E^G]6- | [EG]3- [EG] z !fermata!z || %36
"^A tempo"!mf!!>(! [B,B]6- | [B,B]3- [B,B]2!>)! z |!p! [B,EG]6- | [B,EG]6- || %40
[M:9/8] [B,EG]6- [B,EG]3 ||[M:6/8]!>(! [DF]6- | [DF]3- [DF]2!>)! z |!<(! (^D6 | E3 F3!<)! | %45
 G3 F3 ||[M:9/8] G2 E C6) ||[M:6/8]!>(! B,6- | B,3- B,2!>)! z |!p! ([B,EG]3 [DFA]3 | %50
 [DGB]3 [EFA]2 [^DFB] | E3-) E2 z | z6 | z6 | z6 ||"^A tempo"!p! ([e^g]3 [ef]3) | ([e^g]3 [ef]3) | %57
 ([e^g]6 | [^db]3-) [db]2 z | z6 | z6 | z6 | z6 |!f! [E^Ge]3 [EBd]3 |!>(! [EAc]3 [EB]3-!>)! | %65
 [EB]3 [DFB]3- | [DFB]3- [DFB]2 z |!p! ([B,FA]6 | [B,EG]3)!>(! (ABc!>)! || %69
[M:9/8]"_Rall." [E^GB]3)!pp! ([EG]3 [^DA]3 ||[M:6/8] [E^G]6-) | [EG]3- [EG] z !fermata!z |] %72
V:3
!ped! z6 | z6!ped-up! | E,6- | E,6- ||[M:9/8] E,6- E,3 ||[M:6/8] B,6- | B,3- B,2 z | z6 | z6 | %9
 z6 ||[M:9/8] z9 ||[M:6/8] z6 | z6 | (E,3 D,3 | G,3 C,2 B,, | C,6) |!p!"^Rall." (A,,3 F,,2 D,, | %17
 E,,6-) | E,,3- E,,2 z ||[K:treble] [E^GB]3 [EAB]3 | [E^GB]3 [EAB]3 | ([E^GB]3- [EGB]2 [^CE] | %22
 [B,F]3-) [B,F]2 z |[K:bass]!p! (^G,3 A,3 | =G,3 F,2 ^D, | E,3- E,2 ^C, | B,,3-) B,,2 z | %27
 [E,,E,]3 [^G,,^G,]3 | [A,,A,]3 =G,3- | G,3 B,,3- | B,,3- B,,2 z | (^D,6 | E,3) (C,B,,A,, || %33
[M:9/8]!ped! B,,6-) B,,3!ped-up! ||[M:6/8] E,6- | E,3- E, z !fermata!z ||!ped! z6 | z6!ped-up! | %38
 E,6- | E,6- ||[M:9/8] E,6- E,3 ||[M:6/8] B,6- | B,3- B,2 z | z6 | z6 | z6 ||[M:9/8] z9 || %47
[M:6/8] z6 | z6 | (E,3 D,3 | G,3 C,2 B,, | C,6) |!p!"^Rall." (A,,3 F,,2 D,, | E,,6-) | %54
 E,,3- E,,2 z ||[K:treble] [E^GB]3 [EAB]3 | [E^GB]3 [EAB]3 | [E^GB]3- [EGB]2 [^CE] | %58
 [B,F]3- [B,F]2 z |[K:bass]!p! (^G,3 A,3 | =G,3 F,2 ^D, | E,3- E,2 ^C, | B,,3-) B,,2 z | %63
 [E,,E,]3 [^G,,^G,]3 | [A,,A,]3 =G,3- | G,3 B,,3- | B,,3- B,,2 z | (^D,6 | E,3) (C,B,,A,, || %69
[M:9/8] B,,6-) B,,3 ||[M:6/8] E,6- | E,3- E, z !fermata!z |] %72
V:4
 x6 | x6 | x6 | x6 ||[M:9/8] x9 ||[M:6/8] x6 | x6 | x6 | x6 | x6 ||[M:9/8] x9 ||[M:6/8] x6 | x6 | %13
 x6 | x6 | x6 | x6 | x6 | x6 || x6 | x6 | x6 | x6 | x6 | x6 | x6 | x6 | x6 | x6 | x6 | x6 | x6 | %32
 x3 [EF]3 ||[M:9/8] x9 ||[M:6/8] x6 | x6 || x6 | x6 | x6 | x6 ||[M:9/8] x9 ||[M:6/8] x6 | x6 | x6 | %44
 x6 | x6 ||[M:9/8] x9 ||[M:6/8] x6 | x6 | x6 | x6 | x6 | x6 | x6 | x6 || x6 | x6 | x6 | x6 | x6 | %60
 x6 | x6 | x6 | x6 | x6 | x6 | x6 | x6 | x3 [EF]3 ||[M:9/8] x9 ||[M:6/8] x6 | x6 |] %72
V:5
 x6 | x6 | x6 | x6 ||[M:9/8] x9 ||[M:6/8] x6 | x6 | x6 | x6 | x6 ||[M:9/8] x9 ||[M:6/8] x6 | x6 | %13
 x6 | x6 | x6 | x6 | x6 | x6 ||[K:treble] x6 | x6 | x6 | x6 |[K:bass] x6 | x6 | x6 | x6 | x6 | x6 | %29
 x6 | x6 | x6 | x6 ||[M:9/8] z2 z B,6- ||[M:6/8] B,6- | B,3- B, x x || x6 | x6 | x6 | x6 || %40
[M:9/8] x9 ||[M:6/8] x6 | x6 | x6 | x6 | x6 ||[M:9/8] x9 ||[M:6/8] x6 | x6 | x6 | x6 | x6 | x6 | %53
 x6 | x6 ||[K:treble] x6 | x6 | x6 | x6 |[K:bass] x6 | x6 | x6 | x6 | x6 | x6 | x6 | x6 | x6 | %68
 x6 ||[M:9/8] z2 z B,6- ||[M:6/8] B,6- | B,3- B, x x |] %72

